img/sun.svg

<svg id="Capa_1" enable-background="new 0 0 512 512" height="512" viewBox="0 0 512 512" width="512" xmlns="http://www.w3.org/2000/svg" xmlns:xlink="http://www.w3.org/1999/xlink"><linearGradient id="SVGID_1_" gradientUnits="userSpaceOnUse" x1="256" x2="256" y1="512" y2="0"><stop offset="0" stop-color="#ffe59a"/><stop offset="1" stop-color="#ffffd5"/></linearGradient><linearGradient id="SVGID_2_" gradientUnits="userSpaceOnUse" x1="256" x2="256" y1="407" y2="105"><stop offset="0" stop-color="#ffde00"/><stop offset="1" stop-color="#fd5900"/></linearGradient><g><g><circle cx="256" cy="256" fill="url(#SVGID_1_)" r="256"/></g><g><g><path d="m256 176.059c-44.082 0-79.941 35.859-79.941 79.941s35.859 79.941 79.941 79.941 79.941-35.859 79.941-79.941-35.859-79.941-79.941-79.941zm0-17.765c4.91 0 8.882-3.973 8.882-8.882v-35.529c0-4.91-3.973-8.882-8.882-8.882s-8.882 3.973-8.882 8.882v35.529c0 4.909 3.972 8.882 8.882 8.882zm0 195.412c-4.91 0-8.882 3.973-8.882 8.882v35.529c0 4.91 3.973 8.882 8.882 8.882s8.882-3.973 8.882-8.882v-35.529c0-4.909-3.972-8.882-8.882-8.882zm-97.706-97.706c0-4.91-3.973-8.882-8.882-8.882h-35.529c-4.91 0-8.882 3.973-8.882 8.882s3.973 8.882 8.882 8.882h35.529c4.909 0 8.882-3.972 8.882-8.882zm239.824-8.882h-35.529c-4.91 0-8.882 3.973-8.882 8.882s3.973 8.882 8.882 8.882h35.529c4.91 0 8.882-3.973 8.882-8.882s-3.973-8.882-8.882-8.882zm-223.768-60.199c3.47 3.47 9.091 3.47 12.56 0 3.47-3.47 3.47-9.091 0-12.561l-25.12-25.138c-3.47-3.47-9.091-3.47-12.56 0s-3.47 9.091 0 12.561zm163.3 138.162c-3.47-3.47-9.09-3.47-12.56 0s-3.47 9.091 0 12.56l25.12 25.138c3.47 3.47 9.091 3.469 12.56 0 3.47-3.47 3.47-9.091 0-12.561zm-163.3 0-25.12 25.138c-3.47 3.47-3.47 9.091 0 12.561s9.091 3.469 12.56 0l25.12-25.138c3.47-3.469 3.47-9.09 0-12.56-3.469-3.471-9.09-3.471-12.56-.001zm163.3-138.162 25.12-25.138c3.47-3.47 3.47-9.091 0-12.561s-9.09-3.47-12.56 0l-25.12 25.138c-3.47 3.47-3.47 9.091 0 12.561s9.09 3.47 12.56 0z" fill="url(#SVGID_2_)"/></g></g></g></svg>

<?xml version="1.0" encoding="UTF-8" standalone="no"?>
<!DOCTYPE svg PUBLIC "-//W3C//DTD SVG 1.1//EN" "http://www.w3.org/Graphics/SVG/1.1/DTD/svg11.dtd">
<svg width="100%" height="100%" viewBox="0 0 512 512" version="1.1" xmlns="http://www.w3.org/2000/svg" xmlns:xlink="http://www.w3.org/1999/xlink" xml:space="preserve" xmlns:serif="http://www.serif.com/" style="fill-rule:evenodd;clip-rule:evenodd;stroke-linejoin:round;stroke-miterlimit:2;">
    <g>
        <g>
            <circle cx="256" cy="256" r="256" style="fill:url(#_Linear1);"/>
        </g>
        <g>
            <g>
                <path d="M256,176.059C211.918,176.059 176.059,211.918 176.059,256C176.059,300.082 211.918,335.941 256,335.941C300.082,335.941 335.941,300.082 335.941,256C335.941,211.918 300.082,176.059 256,176.059ZM256,158.294C260.91,158.294 264.882,154.321 264.882,149.412L264.882,113.883C264.882,108.973 260.909,105.001 256,105.001C251.091,105.001 247.118,108.974 247.118,113.883L247.118,149.412C247.118,154.321 251.09,158.294 256,158.294ZM256,353.706C251.09,353.706 247.118,357.679 247.118,362.588L247.118,398.117C247.118,403.027 251.091,406.999 256,406.999C260.909,406.999 264.882,403.026 264.882,398.117L264.882,362.588C264.882,357.679 260.91,353.706 256,353.706ZM158.294,256C158.294,251.09 154.321,247.118 149.412,247.118L113.883,247.118C108.973,247.118 105.001,251.091 105.001,256C105.001,260.909 108.974,264.882 113.883,264.882L149.412,264.882C154.321,264.882 158.294,260.91 158.294,256ZM398.118,247.118L362.589,247.118C357.679,247.118 353.707,251.091 353.707,256C353.707,260.909 357.68,264.882 362.589,264.882L398.118,264.882C403.028,264.882 407,260.909 407,256C407,251.091 403.027,247.118 398.118,247.118ZM174.35,186.919C177.82,190.389 183.441,190.389 186.91,186.919C190.38,183.449 190.38,177.828 186.91,174.358L161.79,149.22C158.32,145.75 152.699,145.75 149.23,149.22C145.761,152.69 145.76,158.311 149.23,161.781L174.35,186.919ZM337.65,325.081C334.18,321.611 328.56,321.611 325.09,325.081C321.62,328.551 321.62,334.172 325.09,337.641L350.21,362.779C353.68,366.249 359.301,366.248 362.77,362.779C366.24,359.309 366.24,353.688 362.77,350.218L337.65,325.081ZM174.35,325.081L149.23,350.219C145.76,353.689 145.76,359.31 149.23,362.78C152.7,366.25 158.321,366.249 161.79,362.78L186.91,337.642C190.38,334.173 190.38,328.552 186.91,325.082C183.441,321.611 177.82,321.611 174.35,325.081ZM337.65,186.919L362.77,161.781C366.24,158.311 366.24,152.69 362.77,149.22C359.3,145.75 353.68,145.75 350.21,149.22L325.09,174.358C321.62,177.828 321.62,183.449 325.09,186.919C328.56,190.389 334.18,190.389 337.65,186.919Z" style="fill:url(#_Linear2);fill-rule:nonzero;"/>
            </g>
        </g>
    </g>
    <defs>
        <linearGradient id="_Linear1" x1="0" y1="0" x2="1" y2="0" gradientUnits="userSpaceOnUse" gradientTransform="matrix(3.1351e-14,-512,512,3.1351e-14,256,512)"><stop offset="0" style="stop-color:rgb(255,229,154);stop-opacity:1"/><stop offset="1" style="stop-color:rgb(255,255,213);stop-opacity:1"/></linearGradient>
        <linearGradient id="_Linear2" x1="0" y1="0" x2="1" y2="0" gradientUnits="userSpaceOnUse" gradientTransform="matrix(1.84922e-14,-302,302,1.84922e-14,256,407)"><stop offset="0" style="stop-color:rgb(255,222,0);stop-opacity:1"/><stop offset="1" style="stop-color:rgb(253,89,0);stop-opacity:1"/></linearGradient>
    </defs>
</svg>
